localPackages/DesignSystem/Sources/DesignSystem/Resources/Assets.xcassets/IconSet/ic-lock-open.imageset/ic-lock-open.svg

<svg width="24" height="24" viewBox="0 0 24 24" fill="none" xmlns="http://www.w3.org/2000/svg">
<g id="ic-lock-open">
<g id="Icon">
<path d="M13.5 13.5C13.5 14.0732 13.1785 14.5713 12.706 14.8238L13.3602 17.4409C13.4312 17.7249 13.2164 18 12.9237 18H11.0763C10.7836 18 10.5688 17.7249 10.6398 17.4409L11.294 14.8238C10.8215 14.5713 10.5 14.0732 10.5 13.5C10.5 12.6716 11.1716 12 12 12C12.8284 12 13.5 12.6716 13.5 13.5Z" fill="#0F0F0F"/>
<path fill-rule="evenodd" clip-rule="evenodd" d="M6 6C6 2.68629 8.68629 0 12 0C14.1835 0 16.0937 1.16676 17.1424 2.90723C17.3562 3.26202 17.2419 3.72293 16.8871 3.9367C16.5323 4.15048 16.0714 4.03617 15.8576 3.68139C15.069 2.37261 13.636 1.5 12 1.5C9.51472 1.5 7.5 3.51472 7.5 6V7.50008L16.2 7.5C17.8802 7.5 18.7202 7.5 19.362 7.82698C19.9265 8.1146 20.3854 8.57354 20.673 9.13803C21 9.77976 21 10.6198 21 12.3V17.7C21 19.3802 21 20.2202 20.673 20.862C20.3854 21.4265 19.9265 21.8854 19.362 22.173C18.7202 22.5 17.8802 22.5 16.2 22.5H7.8C6.11984 22.5 5.27976 22.5 4.63803 22.173C4.07354 21.8854 3.6146 21.4265 3.32698 20.862C3 20.2202 3 19.3802 3 17.7V12.3C3 10.6198 3 9.77976 3.32698 9.13803C3.6146 8.57354 4.07354 8.1146 4.63803 7.82698C4.99429 7.64546 5.41168 7.56471 6 7.52878V6ZM7.8 9C6.93517 9 6.37676 9.00117 5.95175 9.03589C5.54426 9.06918 5.39318 9.1257 5.31901 9.16349C5.03677 9.3073 4.8073 9.53677 4.66349 9.81901C4.6257 9.89318 4.56918 10.0443 4.53589 10.4518C4.50117 10.8768 4.5 11.4352 4.5 12.3V17.7C4.5 18.5648 4.50117 19.1232 4.53589 19.5482C4.56918 19.9557 4.6257 20.1068 4.66349 20.181C4.8073 20.4632 5.03677 20.6927 5.31901 20.8365C5.39318 20.8743 5.54426 20.9308 5.95175 20.9641C6.37676 20.9988 6.93517 21 7.8 21H16.2C17.0648 21 17.6232 20.9988 18.0482 20.9641C18.4557 20.9308 18.6068 20.8743 18.681 20.8365C18.9632 20.6927 19.1927 20.4632 19.3365 20.181C19.3743 20.1068 19.4308 19.9557 19.4641 19.5482C19.4988 19.1232 19.5 18.5648 19.5 17.7V12.3C19.5 11.4352 19.4988 10.8768 19.4641 10.4518C19.4308 10.0443 19.3743 9.89318 19.3365 9.81901C19.1927 9.53677 18.9632 9.3073 18.681 9.16349C18.6068 9.1257 18.4557 9.06918 18.0482 9.03589C17.6232 9.00117 17.0648 9 16.2 9H7.8Z" fill="#0F0F0F"/>
</g>
</g>
</svg>

<svg xmlns="http://www.w3.org/2000/svg" width="24" height="24" viewBox="0 0 24 24">
  <g class="ic-lock-open">
    <g class="Icon">
      <path d="M13.5 13.5a1.5 1.5 0 0 1-.794 1.324l.654 2.617a.45.45 0 0 1-.436.559h-1.848a.45.45 0 0 1-.436-.56l.654-2.616A1.5 1.5 0 1 1 13.5 13.5Z"/>
      <path fill-rule="evenodd" d="M6 6a6 6 0 0 1 11.142-3.093.75.75 0 1 1-1.284.774A4.5 4.5 0 0 0 7.5 6v1.5h8.7c1.68 0 2.52 0 3.162.327a3 3 0 0 1 1.311 1.311C21 9.78 21 10.62 21 12.3v5.4c0 1.68 0 2.52-.327 3.162a3 3 0 0 1-1.311 1.311c-.642.327-1.482.327-3.162.327H7.8c-1.68 0-2.52 0-3.162-.327a3 3 0 0 1-1.311-1.311C3 20.22 3 19.38 3 17.7v-5.4c0-1.68 0-2.52.327-3.162a3 3 0 0 1 1.311-1.311c.356-.182.774-.262 1.362-.298V6Zm1.8 3c-.865 0-1.423.001-1.848.036-.408.033-.559.09-.633.127a1.5 1.5 0 0 0-.656.656c-.037.074-.094.225-.127.633-.035.425-.036.983-.036 1.848v5.4c0 .865.001 1.423.036 1.848.033.408.09.559.127.633a1.5 1.5 0 0 0 .656.655c.074.038.225.095.633.128C6.377 21 6.935 21 7.8 21h8.4c.865 0 1.423-.001 1.848-.036.408-.033.559-.09.633-.127a1.5 1.5 0 0 0 .655-.656c.038-.074.095-.225.128-.633.035-.425.036-.983.036-1.848v-5.4c0-.865-.001-1.423-.036-1.848-.033-.408-.09-.559-.127-.633a1.5 1.5 0 0 0-.656-.656c-.074-.037-.225-.094-.633-.127C17.623 9 17.065 9 16.2 9H7.8Z"/>
    </g>
  </g>
</svg>
